X: 426
T: a Bright Morning   #2
N: Irish title: madain geal
R: air, march
%S: s:2 b:11(5+6)
B: O'Neill's 1850 #426
O: J.O'Neill
Z: henrik.norbeck@mailbox.swipnet.se
Q: "Moderate"
M: 2/4
L: 1/8
K: G
B/A/ "^A"|: G>A BA/B/ | d/e/f/d/ ed/B/ | {d}c/B/A/B/ [1 G/B/A/G/ | F2 ED/E/ :|[2 GG | "^fine"G3 |]
|| (3d/e/f/ | ge fd | e>d BA | B/A/B/d/ [1 e/g/f/d/ | e3 :|[2 f/a/g/f/ | e3 "^->A2"B/A/ |]
